X:1
T:James Gibb editions
T:By the Cross sad vigil keeping - Barnby
%%score [ ( 1 2 ) ( 3 4 ) ]
L:1/8
Q:1/4=72
M:4/4
K:Ab
V:1 treble nm="Midi_74"
V:2 treble 
V:3 bass nm="Midi_74"
V:4 bass 
V:1
"^Son of Man (887. 887)""^By the Cross sad vigil keeping""^Joseph Barnby\n(1838-96)" F2 F2 | %1
 A2 G2 F2 =E2 | G2 F2 || A2 A2 | c2 B2 A2 G2 | G2 A2 || c2 c2 | =B2 c2 c2 B2 | c4 ||[M:4/4] G2 G2 | %10
 A2 G2 F2 c2 | c2 B2 || F2 F2 | G2 F2 E2 B2 | B2 A2 || G2 F2 | =E4 F4 | F4 =E4 | F8 || D4 C4 |] %20
V:2
 C2 D2 | E2 D2 C2 C2 | =E2 F2 || F2 F2 | F2 F2 E2 E2 | E2 E2 || E2 F2 | G2- A2 G2 G2 | G4 || %9
[M:4/4] C2 C2 | C2 =E2 F2 _E2 | E2 =D2 || =D2 D2 | E2 =D2 E2 _D2 | C2 C2 || E2 D2 | C4 =D4 | %17
 C4 C4 | C8 || B,4 =A,4 |] %20
V:3
 A,2 A,2 | C2 B,2 A,2 G,2 | B,2 A,2 || C2 F2 | E2 D2 C2 B,2 | D2 C2 || C2 =D2 | =D2 E2 D2 D2 | %8
 =E4 ||[M:4/4] C2 C2 | C2 B,2 A,2 A,2 | A,2 F,2 || =D2 B,2 | B,2 A,2 G,2 F,2 | E,2 C2 || B,2 A,2 | %16
 G,4 A,4 | G,6 B,2 | =A,8 || F,4 F,4 |] %20
V:4
 F,2 D,2 | A,,2 B,,2 C,2 C,2 | C,2 F,2 || F,2 F,2 | B,,2 B,,2 E,2 E,2 | A,,2 A,,2 || A,2 A,2 | %7
 G,2 F,2 G,2 G,2 | C,4 ||[M:4/4] =E,2 E,2 | F,2 G,2 A,2 F,2 | B,,2 F,2 || B,2 B,,2 | %13
 E,2 F,2 G,2 G,,2 | A,,2 A,,2 || B,,2 B,,2 | C,6 =B,,2 | C,4 C,4 | F,8 || B,,4 F,,4 |] %20

